CKC/img/icons/advant-01.svg

<svg width="46" height="39" viewBox="0 0 46 39" fill="none" xmlns="http://www.w3.org/2000/svg">
<path d="M41.9058 19.7733L45.13 23.0205L30.0912 38.1975L22.0997 30.1369L25.324 26.8896L30.0912 31.6799L41.9058 19.7733ZM18.6452 0.19751C21.0884 0.19751 23.4315 1.16807 25.1591 2.89568C26.8868 4.62328 27.8573 6.96642 27.8573 9.40963C27.8573 11.8528 26.8868 14.196 25.1591 15.9236C23.4315 17.6512 21.0884 18.6218 18.6452 18.6218C16.202 18.6218 13.8588 17.6512 12.1312 15.9236C10.4036 14.196 9.43307 11.8528 9.43307 9.40963C9.43307 6.96642 10.4036 4.62328 12.1312 2.89568C13.8588 1.16807 16.202 0.19751 18.6452 0.19751ZM18.6452 4.80357C17.4236 4.80357 16.252 5.28885 15.3882 6.15265C14.5244 7.01646 14.0391 8.18803 14.0391 9.40963C14.0391 10.6312 14.5244 11.8028 15.3882 12.6666C16.252 13.5304 17.4236 14.0157 18.6452 14.0157C19.8668 14.0157 21.0384 13.5304 21.9022 12.6666C22.766 11.8028 23.2512 10.6312 23.2512 9.40963C23.2512 8.18803 22.766 7.01646 21.9022 6.15265C21.0384 5.28885 19.8668 4.80357 18.6452 4.80357ZM18.6452 20.9248C20.2113 20.9248 22.0997 21.1321 24.1955 21.5236L20.3494 25.3696L18.6452 25.3005C11.8052 25.3005 4.5967 28.663 4.5967 30.1369V32.6702H18.8755L23.2512 37.046H0.220947V30.1369C0.220947 24.0108 12.4961 20.9248 18.6452 20.9248Z" fill="#F9600A"/>
</svg>

<svg width="46" height="39" fill="none" xmlns="http://www.w3.org/2000/svg"><path d="M41.906 19.773l3.224 3.247-15.039 15.177-7.991-8.06 3.224-3.247 4.767 4.79 11.815-11.907zM18.646.198a9.212 9.212 0 110 18.423 9.212 9.212 0 010-18.423zm0 4.606a4.606 4.606 0 100 9.212 4.606 4.606 0 000-9.212zm0 16.12c1.565 0 3.454.208 5.55.6l-3.847 3.846-1.704-.07c-6.84 0-14.048 3.363-14.048 4.837v2.533h14.278l4.376 4.376H.221v-6.91c0-6.125 12.275-9.211 18.424-9.211z" fill="#F9600A"/></svg>
